X: 5867
T: Callum's Roar
R: reel
M: 4/4
K: Gdorian
|:DGGA BGAF|DGGA BGAF|DGGA BABd|c2AF DFAF|
DGGA BGAF|DGGA BABc|dgdB cfcA|BGGF G3F:|
|:dgga b2ag|fdcA FGAc|dgga bagf|dggf g3a|
b2ag a2ge|fdcA FGAc|d2cA BAGF|DGGF G4:|

